packages/icons/svgs/duotone/Source=bulb.svg

<svg width="24" height="24" viewBox="0 0 24 24" fill="none" xmlns="http://www.w3.org/2000/svg">
<g opacity="0.5">
<path fill-rule="evenodd" clip-rule="evenodd" d="M0 12C0 11.4477 0.447715 11 1 11H3C3.55228 11 4 11.4477 4 12C4 12.5523 3.55228 13 3 13H1C0.447715 13 0 12.5523 0 12Z" fill="black" style="fill:black;fill-opacity:1;"/>
<path fill-rule="evenodd" clip-rule="evenodd" d="M3.51489 3.51489C3.90542 3.12437 4.53858 3.12437 4.92911 3.51489L6.34311 4.92889C6.73363 5.31942 6.73363 5.95258 6.34311 6.34311C5.95258 6.73363 5.31942 6.73363 4.92889 6.34311L3.51489 4.92911C3.12437 4.53858 3.12437 3.90542 3.51489 3.51489Z" fill="black" style="fill:black;fill-opacity:1;"/>
<path fill-rule="evenodd" clip-rule="evenodd" d="M12 0C12.5523 0 13 0.447715 13 1V3C13 3.55228 12.5523 4 12 4C11.4477 4 11 3.55228 11 3V1C11 0.447715 11.4477 0 12 0Z" fill="black" style="fill:black;fill-opacity:1;"/>
<path fill-rule="evenodd" clip-rule="evenodd" d="M20.4851 3.51489C20.8756 3.90542 20.8756 4.53858 20.4851 4.92911L19.0711 6.34311C18.6806 6.73363 18.0474 6.73363 17.6569 6.34311C17.2664 5.95258 17.2664 5.31942 17.6569 4.92889L19.0709 3.51489C19.4614 3.12437 20.0946 3.12437 20.4851 3.51489Z" fill="black" style="fill:black;fill-opacity:1;"/>
<path fill-rule="evenodd" clip-rule="evenodd" d="M20 12C20 11.4477 20.4477 11 21 11H23C23.5523 11 24 11.4477 24 12C24 12.5523 23.5523 13 23 13H21C20.4477 13 20 12.5523 20 12Z" fill="black" style="fill:black;fill-opacity:1;"/>
</g>
<path fill-rule="evenodd" clip-rule="evenodd" d="M5 12C5 8.13372 8.13372 5 12 5C15.8663 5 19 8.13372 19 12C19 14.7938 17.3616 17.1966 15 18.3184V22C15 22.5523 14.5523 23 14 23H10C9.44772 23 9 22.5523 9 22V18.3184C6.6384 17.1966 5 14.7938 5 12ZM12 7C9.23829 7 7 9.23829 7 12C7 14.1723 8.3897 16.0205 10.3335 16.7083C10.733 16.8496 11 17.2273 11 17.651V21H13V17.651C13 17.2273 13.267 16.8496 13.6665 16.7083C15.6103 16.0205 17 14.1723 17 12C17 9.23829 14.7617 7 12 7Z" fill="black" style="fill:black;fill-opacity:1;"/>
</svg>

<svg xmlns="http://www.w3.org/2000/svg" width="24" height="24" viewBox="0 0 24 24"><path fill-rule="evenodd" d="M0 12a1 1 0 0 1 1-1h2a1 1 0 1 1 0 2H1a1 1 0 0 1-1-1m3.515-8.485a1 1 0 0 1 1.414 0l1.414 1.414A1 1 0 0 1 4.93 6.343L3.515 4.93a1 1 0 0 1 0-1.414M12 0a1 1 0 0 1 1 1v2a1 1 0 1 1-2 0V1a1 1 0 0 1 1-1m8.485 3.515a1 1 0 0 1 0 1.414l-1.414 1.414a1 1 0 1 1-1.414-1.414l1.414-1.414a1 1 0 0 1 1.414 0M20 12a1 1 0 0 1 1-1h2a1 1 0 1 1 0 2h-2a1 1 0 0 1-1-1" clip-rule="evenodd" opacity=".55"/><path fill-rule="evenodd" d="M5 12a7 7 0 1 1 14 0 6.99 6.99 0 0 1-4 6.318V22a1 1 0 0 1-1 1h-4a1 1 0 0 1-1-1v-3.682A6.99 6.99 0 0 1 5 12m7-5a4.996 4.996 0 0 0-1.666 9.708 1 1 0 0 1 .666.943V21h2v-3.349a1 1 0 0 1 .666-.943A4.996 4.996 0 0 0 12 7" clip-rule="evenodd"/></svg>
